X:271
T:Kit: edes of Munsith
Z: id:dc-hornpipe-11
M:C|
L:1/8
K:A Dorian
A|EAG FGA AFG|B2G FED|!
EFA AFA|BAF GEE|FAA def|g3 dBc|BABc d3e|Adde fdcA|!
ddef gage|ffe fBc|dfe fed|efe dfe|!
cee ege|dBA AFA|BEE A2:|!